icons/src/scalable/emblems/cigarette-symbolic.svg

<?xml version="1.0" encoding="UTF-8" standalone="no"?>
<svg
   height="16px"
   viewBox="0 0 16 16"
   width="16px"
   version="1.1"
   id="svg167"
   sodipodi:docname="cigarette-symbolic.svg"
   inkscape:version="1.1 (c68e22c387, 2021-05-23)"
   xmlns:inkscape="http://www.inkscape.org/namespaces/inkscape"
   xmlns:sodipodi="http://sodipodi.sourceforge.net/DTD/sodipodi-0.dtd"
   xmlns="http://www.w3.org/2000/svg"
   xmlns:svg="http://www.w3.org/2000/svg">
  <defs
     id="defs171">
    <clipPath
       id="A-3">
      <path
         d="M 0,0 H 1024 V 800 H 0 Z"
         id="path106-6" />
    </clipPath>
    <mask
       id="z-7">
      <g
         filter="url(#a)"
         id="g103-5"
         style="filter:url(#a-5)">
        <path
           d="M 0,0 H 16 V 16 H 0 Z"
           fill-opacity="0.5"
           id="path101-3" />
      </g>
    </mask>
    <filter
       id="a-5"
       height="1"
       width="1"
       x="0"
       y="0">
      <feColorMatrix
         in="SourceGraphic"
         type="matrix"
         values="0 0 0 0 1 0 0 0 0 1 0 0 0 0 1 0 0 0 1 0"
         id="feColorMatrix2-6" />
    </filter>
    <clipPath
       id="y-2">
      <path
         d="M 0,0 H 1024 V 800 H 0 Z"
         id="path98-9" />
    </clipPath>
    <mask
       id="x-1">
      <g
         filter="url(#a)"
         id="g95-2"
         style="filter:url(#a-5)">
        <path
           d="M 0,0 H 16 V 16 H 0 Z"
           fill-opacity="0.5"
           id="path93-7" />
      </g>
    </mask>
    <filter
       id="filter19281"
       height="1"
       width="1"
       x="0"
       y="0">
      <feColorMatrix
         in="SourceGraphic"
         type="matrix"
         values="0 0 0 0 1 0 0 0 0 1 0 0 0 0 1 0 0 0 1 0"
         id="feColorMatrix19279" />
    </filter>
    <clipPath
       id="w-0">
      <path
         d="M 0,0 H 1024 V 800 H 0 Z"
         id="path90-9" />
    </clipPath>
    <mask
       id="v-3">
      <g
         filter="url(#a)"
         id="g87-6"
         style="filter:url(#a-5)">
        <path
           d="M 0,0 H 16 V 16 H 0 Z"
           fill-opacity="0.4"
           id="path85-0" />
      </g>
    </mask>
    <filter
       id="filter19290"
       height="1"
       width="1"
       x="0"
       y="0">
      <feColorMatrix
         in="SourceGraphic"
         type="matrix"
         values="0 0 0 0 1 0 0 0 0 1 0 0 0 0 1 0 0 0 1 0"
         id="feColorMatrix19288" />
    </filter>
    <clipPath
       id="u-6">
      <path
         d="M 0,0 H 1024 V 800 H 0 Z"
         id="path82-2" />
    </clipPath>
    <mask
       id="t-6">
      <g
         filter="url(#a)"
         id="g79-1"
         style="filter:url(#a-5)">
        <path
           d="M 0,0 H 16 V 16 H 0 Z"
           fill-opacity="0.4"
           id="path77-8" />
      </g>
    </mask>
    <filter
       id="filter19299"
       height="1"
       width="1"
       x="0"
       y="0">
      <feColorMatrix
         in="SourceGraphic"
         type="matrix"
         values="0 0 0 0 1 0 0 0 0 1 0 0 0 0 1 0 0 0 1 0"
         id="feColorMatrix19297" />
    </filter>
    <clipPath
       id="s-7">
      <path
         d="M 0,0 H 1024 V 800 H 0 Z"
         id="path74-9" />
    </clipPath>
    <mask
       id="r-2">
      <g
         filter="url(#a)"
         id="g71-0"
         style="filter:url(#a-5)">
        <path
           d="M 0,0 H 16 V 16 H 0 Z"
           fill-opacity="0.5"
           id="path69-2" />
      </g>
    </mask>
    <filter
       id="filter19308"
       height="1"
       width="1"
       x="0"
       y="0">
      <feColorMatrix
         in="SourceGraphic"
         type="matrix"
         values="0 0 0 0 1 0 0 0 0 1 0 0 0 0 1 0 0 0 1 0"
         id="feColorMatrix19306" />
    </filter>
    <clipPath
       id="q-3">
      <path
         d="M 0,0 H 1024 V 800 H 0 Z"
         id="path66-7" />
    </clipPath>
    <mask
       id="p-5">
      <g
         filter="url(#a)"
         id="g63-9"
         style="filter:url(#a-5)">
        <path
           d="M 0,0 H 16 V 16 H 0 Z"
           fill-opacity="0.3"
           id="path61-2" />
      </g>
    </mask>
    <filter
       id="filter19317"
       height="1"
       width="1"
       x="0"
       y="0">
      <feColorMatrix
         in="SourceGraphic"
         type="matrix"
         values="0 0 0 0 1 0 0 0 0 1 0 0 0 0 1 0 0 0 1 0"
         id="feColorMatrix19315" />
    </filter>
    <clipPath
       id="o-2">
      <path
         d="M 0,0 H 1024 V 800 H 0 Z"
         id="path58-8" />
    </clipPath>
    <mask
       id="n-9">
      <g
         filter="url(#a)"
         id="g55-7"
         style="filter:url(#a-5)">
        <path
           d="M 0,0 H 16 V 16 H 0 Z"
           fill-opacity="0.05"
           id="path53-3" />
      </g>
    </mask>
    <filter
       id="filter19326"
       height="1"
       width="1"
       x="0"
       y="0">
      <feColorMatrix
         in="SourceGraphic"
         type="matrix"
         values="0 0 0 0 1 0 0 0 0 1 0 0 0 0 1 0 0 0 1 0"
         id="feColorMatrix19324" />
    </filter>
    <clipPath
       id="m-6">
      <path
         d="M 0,0 H 1024 V 800 H 0 Z"
         id="path50-1" />
    </clipPath>
    <mask
       id="l-2">
      <g
         filter="url(#a)"
         id="g47-9"
         style="filter:url(#a-5)">
        <path
           d="M 0,0 H 16 V 16 H 0 Z"
           fill-opacity="0.05"
           id="path45-3" />
      </g>
    </mask>
    <filter
       id="filter19335"
       height="1"
       width="1"
       x="0"
       y="0">
      <feColorMatrix
         in="SourceGraphic"
         type="matrix"
         values="0 0 0 0 1 0 0 0 0 1 0 0 0 0 1 0 0 0 1 0"
         id="feColorMatrix19333" />
    </filter>
    <clipPath
       id="k-1">
      <path
         d="M 0,0 H 1024 V 800 H 0 Z"
         id="path42-9" />
    </clipPath>
    <mask
       id="j-4">
      <g
         filter="url(#a)"
         id="g39-7"
         style="filter:url(#a-5)">
        <path
           d="M 0,0 H 16 V 16 H 0 Z"
           fill-opacity="0.05"
           id="path37-8" />
      </g>
    </mask>
    <filter
       id="filter19344"
       height="1"
       width="1"
       x="0"
       y="0">
      <feColorMatrix
         in="SourceGraphic"
         type="matrix"
         values="0 0 0 0 1 0 0 0 0 1 0 0 0 0 1 0 0 0 1 0"
         id="feColorMatrix19342" />
    </filter>
    <clipPath
       id="i-4">
      <path
         d="M 0,0 H 1024 V 800 H 0 Z"
         id="path34-5" />
    </clipPath>
    <mask
       id="h-0">
      <g
         filter="url(#a)"
         id="g31-3"
         style="filter:url(#a-5)">
        <path
           d="M 0,0 H 16 V 16 H 0 Z"
           fill-opacity="0.05"
           id="path29-6" />
      </g>
    </mask>
    <filter
       id="filter19353"
       height="1"
       width="1"
       x="0"
       y="0">
      <feColorMatrix
         in="SourceGraphic"
         type="matrix"
         values="0 0 0 0 1 0 0 0 0 1 0 0 0 0 1 0 0 0 1 0"
         id="feColorMatrix19351" />
    </filter>
    <clipPath
       id="g-1">
      <path
         d="M 0,0 H 1024 V 800 H 0 Z"
         id="path26-0" />
    </clipPath>
    <mask
       id="f-6">
      <g
         filter="url(#a)"
         id="g23-3"
         style="filter:url(#a-5)">
        <path
           d="M 0,0 H 16 V 16 H 0 Z"
           fill-opacity="0.05"
           id="path21-2" />
      </g>
    </mask>
    <filter
       id="filter19362"
       height="1"
       width="1"
       x="0"
       y="0">
      <feColorMatrix
         in="SourceGraphic"
         type="matrix"
         values="0 0 0 0 1 0 0 0 0 1 0 0 0 0 1 0 0 0 1 0"
         id="feColorMatrix19360" />
    </filter>
    <clipPath
       id="e-0">
      <path
         d="M 0,0 H 1024 V 800 H 0 Z"
         id="path18-6" />
    </clipPath>
    <mask
       id="d-1">
      <g
         filter="url(#a)"
         id="g15-5"
         style="filter:url(#a-5)">
        <path
           d="M 0,0 H 16 V 16 H 0 Z"
           fill-opacity="0.05"
           id="path13-5" />
      </g>
    </mask>
    <filter
       id="filter19371"
       height="1"
       width="1"
       x="0"
       y="0">
      <feColorMatrix
         in="SourceGraphic"
         type="matrix"
         values="0 0 0 0 1 0 0 0 0 1 0 0 0 0 1 0 0 0 1 0"
         id="feColorMatrix19369" />
    </filter>
    <clipPath
       id="c-4">
      <path
         d="M 0,0 H 1024 V 800 H 0 Z"
         id="path10-7" />
    </clipPath>
    <mask
       id="b-6">
      <g
         filter="url(#a)"
         id="g7-5"
         style="filter:url(#a-5)">
        <path
           d="M 0,0 H 16 V 16 H 0 Z"
           fill-opacity="0.3"
           id="path5-6" />
      </g>
    </mask>
    <filter
       id="filter19380"
       height="1"
       width="1"
       x="0"
       y="0">
      <feColorMatrix
         in="SourceGraphic"
         type="matrix"
         values="0 0 0 0 1 0 0 0 0 1 0 0 0 0 1 0 0 0 1 0"
         id="feColorMatrix19378" />
    </filter>
  </defs>
  <sodipodi:namedview
     id="namedview169"
     pagecolor="#ffffff"
     bordercolor="#666666"
     borderopacity="1.0"
     inkscape:pageshadow="2"
     inkscape:pageopacity="0.0"
     inkscape:pagecheckerboard="0"
     showgrid="true"
     inkscape:zoom="23.5113"
     inkscape:cx="5.8695179"
     inkscape:cy="7.9748885"
     inkscape:window-width="1366"
     inkscape:window-height="704"
     inkscape:window-x="0"
     inkscape:window-y="27"
     inkscape:window-maximized="1"
     inkscape:current-layer="svg167">
    <inkscape:grid
       type="xygrid"
       id="grid253" />
  </sodipodi:namedview>
  <filter
     id="a"
     height="1"
     width="1"
     x="0"
     y="0">
    <feColorMatrix
       in="SourceGraphic"
       type="matrix"
       values="0 0 0 0 1 0 0 0 0 1 0 0 0 0 1 0 0 0 1 0"
       id="feColorMatrix2" />
  </filter>
  <mask
     id="b">
    <g
       filter="url(#a)"
       id="g7">
      <path
         d="m 0 0 h 16 v 16 h -16 z"
         fill-opacity="0.3"
         id="path5" />
    </g>
  </mask>
  <clipPath
     id="c">
    <path
       d="m 0 0 h 1024 v 800 h -1024 z"
       id="path10" />
  </clipPath>
  <mask
     id="d">
    <g
       filter="url(#a)"
       id="g15">
      <path
         d="m 0 0 h 16 v 16 h -16 z"
         fill-opacity="0.05"
         id="path13" />
    </g>
  </mask>
  <clipPath
     id="e">
    <path
       d="m 0 0 h 1024 v 800 h -1024 z"
       id="path18" />
  </clipPath>
  <mask
     id="f">
    <g
       filter="url(#a)"
       id="g23">
      <path
         d="m 0 0 h 16 v 16 h -16 z"
         fill-opacity="0.05"
         id="path21" />
    </g>
  </mask>
  <clipPath
     id="g">
    <path
       d="m 0 0 h 1024 v 800 h -1024 z"
       id="path26" />
  </clipPath>
  <mask
     id="h">
    <g
       filter="url(#a)"
       id="g31">
      <path
         d="m 0 0 h 16 v 16 h -16 z"
         fill-opacity="0.05"
         id="path29" />
    </g>
  </mask>
  <clipPath
     id="i">
    <path
       d="m 0 0 h 1024 v 800 h -1024 z"
       id="path34" />
  </clipPath>
  <mask
     id="j">
    <g
       filter="url(#a)"
       id="g39">
      <path
         d="m 0 0 h 16 v 16 h -16 z"
         fill-opacity="0.05"
         id="path37" />
    </g>
  </mask>
  <clipPath
     id="k">
    <path
       d="m 0 0 h 1024 v 800 h -1024 z"
       id="path42" />
  </clipPath>
  <mask
     id="l">
    <g
       filter="url(#a)"
       id="g47">
      <path
         d="m 0 0 h 16 v 16 h -16 z"
         fill-opacity="0.05"
         id="path45" />
    </g>
  </mask>
  <clipPath
     id="m">
    <path
       d="m 0 0 h 1024 v 800 h -1024 z"
       id="path50" />
  </clipPath>
  <mask
     id="n">
    <g
       filter="url(#a)"
       id="g55">
      <path
         d="m 0 0 h 16 v 16 h -16 z"
         fill-opacity="0.05"
         id="path53" />
    </g>
  </mask>
  <clipPath
     id="o">
    <path
       d="m 0 0 h 1024 v 800 h -1024 z"
       id="path58" />
  </clipPath>
  <mask
     id="p">
    <g
       filter="url(#a)"
       id="g63">
      <path
         d="m 0 0 h 16 v 16 h -16 z"
         fill-opacity="0.3"
         id="path61" />
    </g>
  </mask>
  <clipPath
     id="q">
    <path
       d="m 0 0 h 1024 v 800 h -1024 z"
       id="path66" />
  </clipPath>
  <mask
     id="r">
    <g
       filter="url(#a)"
       id="g71">
      <path
         d="m 0 0 h 16 v 16 h -16 z"
         fill-opacity="0.5"
         id="path69" />
    </g>
  </mask>
  <clipPath
     id="s">
    <path
       d="m 0 0 h 1024 v 800 h -1024 z"
       id="path74" />
  </clipPath>
  <mask
     id="t">
    <g
       filter="url(#a)"
       id="g79">
      <path
         d="m 0 0 h 16 v 16 h -16 z"
         fill-opacity="0.4"
         id="path77" />
    </g>
  </mask>
  <clipPath
     id="u">
    <path
       d="m 0 0 h 1024 v 800 h -1024 z"
       id="path82" />
  </clipPath>
  <mask
     id="v">
    <g
       filter="url(#a)"
       id="g87">
      <path
         d="m 0 0 h 16 v 16 h -16 z"
         fill-opacity="0.4"
         id="path85" />
    </g>
  </mask>
  <clipPath
     id="w">
    <path
       d="m 0 0 h 1024 v 800 h -1024 z"
       id="path90" />
  </clipPath>
  <mask
     id="x">
    <g
       filter="url(#a)"
       id="g95">
      <path
         d="m 0 0 h 16 v 16 h -16 z"
         fill-opacity="0.5"
         id="path93" />
    </g>
  </mask>
  <clipPath
     id="y">
    <path
       d="m 0 0 h 1024 v 800 h -1024 z"
       id="path98" />
  </clipPath>
  <mask
     id="z">
    <g
       filter="url(#a)"
       id="g103">
      <path
         d="m 0 0 h 16 v 16 h -16 z"
         fill-opacity="0.5"
         id="path101" />
    </g>
  </mask>
  <clipPath
     id="A">
    <path
       d="m 0 0 h 1024 v 800 h -1024 z"
       id="path106" />
  </clipPath>
  <g
     clip-path="url(#c)"
     mask="url(#b)"
     transform="matrix(1 0 0 1 -160 -40)"
     id="g111">
    <path
       d="m 562.460938 212.058594 h 10.449218 c -1.183594 0.492187 -1.296875 2.460937 0 3 h -10.449218 z m 0 0"
       fill="#2e3436"
       id="path109" />
  </g>
  <g
     clip-path="url(#e)"
     mask="url(#d)"
     transform="matrix(1 0 0 1 -160 -40)"
     id="g115">
    <path
       d="m 16 632 h 1 v 1 h -1 z m 0 0"
       fill="#2e3436"
       fill-rule="evenodd"
       id="path113" />
  </g>
  <g
     clip-path="url(#g)"
     mask="url(#f)"
     transform="matrix(1 0 0 1 -160 -40)"
     id="g119">
    <path
       d="m 17 631 h 1 v 1 h -1 z m 0 0"
       fill="#2e3436"
       fill-rule="evenodd"
       id="path117" />
  </g>
  <g
     clip-path="url(#i)"
     mask="url(#h)"
     transform="matrix(1 0 0 1 -160 -40)"
     id="g123">
    <path
       d="m 18 634 h 1 v 1 h -1 z m 0 0"
       fill="#2e3436"
       fill-rule="evenodd"
       id="path121" />
  </g>
  <g
     clip-path="url(#k)"
     mask="url(#j)"
     transform="matrix(1 0 0 1 -160 -40)"
     id="g127">
    <path
       d="m 16 634 h 1 v 1 h -1 z m 0 0"
       fill="#2e3436"
       fill-rule="evenodd"
       id="path125" />
  </g>
  <g
     clip-path="url(#m)"
     mask="url(#l)"
     transform="matrix(1 0 0 1 -160 -40)"
     id="g131">
    <path
       d="m 17 635 h 1 v 1 h -1 z m 0 0"
       fill="#2e3436"
       fill-rule="evenodd"
       id="path129" />
  </g>
  <g
     clip-path="url(#o)"
     mask="url(#n)"
     transform="matrix(1 0 0 1 -160 -40)"
     id="g135">
    <path
       d="m 19 635 h 1 v 1 h -1 z m 0 0"
       fill="#2e3436"
       fill-rule="evenodd"
       id="path133" />
  </g>
  <g
     clip-path="url(#q)"
     mask="url(#p)"
     transform="matrix(1 0 0 1 -160 -40)"
     id="g139">
    <path
       d="m 136 660 v 7 h 7 v -7 z m 0 0"
       fill="#2e3436"
       id="path137" />
  </g>
  <g
     clip-path="url(#s)"
     mask="url(#r)"
     transform="matrix(1 0 0 1 -160 -40)"
     id="g143">
    <path
       d="m 199 642 h 3 v 12 h -3 z m 0 0"
       fill="#2e3436"
       id="path141" />
  </g>
  <g
     clip-path="url(#u)"
     mask="url(#t)"
     transform="matrix(1 0 0 1 -160 -40)"
     id="g147">
    <path
       d="m 209.5 144.160156 c 0.277344 0 0.5 0.222656 0.5 0.5 v 1 c 0 0.277344 -0.222656 0.5 -0.5 0.5 s -0.5 -0.222656 -0.5 -0.5 v -1 c 0 -0.277344 0.222656 -0.5 0.5 -0.5 z m 0 0"
       fill="#2e3436"
       id="path145" />
  </g>
  <g
     clip-path="url(#w)"
     mask="url(#v)"
     transform="matrix(1 0 0 1 -160 -40)"
     id="g151">
    <path
       d="m 206.5 144.160156 c 0.277344 0 0.5 0.222656 0.5 0.5 v 1 c 0 0.277344 -0.222656 0.5 -0.5 0.5 s -0.5 -0.222656 -0.5 -0.5 v -1 c 0 -0.277344 0.222656 -0.5 0.5 -0.5 z m 0 0"
       fill="#2e3436"
       id="path149" />
  </g>
  <g
     clip-path="url(#y)"
     mask="url(#x)"
     transform="matrix(1 0 0 1 -160 -40)"
     id="g155">
    <path
       d="m 229.5 143.160156 c -0.546875 0 -1 0.457032 -1 1 c 0 0.546875 0.453125 1 1 1 s 1 -0.453125 1 -1 c 0 -0.542968 -0.453125 -1 -1 -1 z m 0 0"
       fill="#2e3436"
       id="path153" />
  </g>
  <g
     clip-path="url(#A)"
     mask="url(#z)"
     transform="matrix(1 0 0 1 -160 -40)"
     id="g159">
    <path
       d="m 226.453125 143.160156 c -0.519531 0 -0.953125 0.433594 -0.953125 0.953125 v 0.09375 c 0 0.519531 0.433594 0.953125 0.953125 0.953125 h 0.09375 c 0.519531 0 0.953125 -0.433594 0.953125 -0.953125 v -0.09375 c 0 -0.519531 -0.433594 -0.953125 -0.953125 -0.953125 z m 0 0"
       fill="#2e3436"
       id="path157" />
  </g>
  <g
     clip-path="url(#c-4)"
     mask="url(#b-6)"
     transform="translate(-160,-59.964844)"
     id="g111-9">
    <path
       d="m 562.46094,212.05859 h 10.44922 c -1.1836,0.49219 -1.29688,2.46094 0,3 h -10.44922 z m 0,0"
       fill="#2e3436"
       id="path109-3" />
  </g>
  <g
     clip-path="url(#e-0)"
     mask="url(#d-1)"
     transform="translate(-160,-59.964844)"
     id="g115-7">
    <path
       d="m 16,632 h 1 v 1 h -1 z m 0,0"
       fill="#2e3436"
       fill-rule="evenodd"
       id="path113-4" />
  </g>
  <g
     clip-path="url(#g-1)"
     mask="url(#f-6)"
     transform="translate(-160,-59.964844)"
     id="g119-5">
    <path
       d="m 17,631 h 1 v 1 h -1 z m 0,0"
       fill="#2e3436"
       fill-rule="evenodd"
       id="path117-2" />
  </g>
  <g
     clip-path="url(#i-4)"
     mask="url(#h-0)"
     transform="translate(-160,-59.964844)"
     id="g123-5">
    <path
       d="m 18,634 h 1 v 1 h -1 z m 0,0"
       fill="#2e3436"
       fill-rule="evenodd"
       id="path121-4" />
  </g>
  <g
     clip-path="url(#k-1)"
     mask="url(#j-4)"
     transform="translate(-160,-59.964844)"
     id="g127-7">
    <path
       d="m 16,634 h 1 v 1 h -1 z m 0,0"
       fill="#2e3436"
       fill-rule="evenodd"
       id="path125-4" />
  </g>
  <g
     clip-path="url(#m-6)"
     mask="url(#l-2)"
     transform="translate(-160,-59.964844)"
     id="g131-4">
    <path
       d="m 17,635 h 1 v 1 h -1 z m 0,0"
       fill="#2e3436"
       fill-rule="evenodd"
       id="path129-3" />
  </g>
  <g
     clip-path="url(#o-2)"
     mask="url(#n-9)"
     transform="translate(-160,-59.964844)"
     id="g135-0">
    <path
       d="m 19,635 h 1 v 1 h -1 z m 0,0"
       fill="#2e3436"
       fill-rule="evenodd"
       id="path133-7" />
  </g>
  <g
     clip-path="url(#q-3)"
     mask="url(#p-5)"
     transform="translate(-160,-59.964844)"
     id="g139-8">
    <path
       d="m 136,660 v 7 h 7 v -7 z m 0,0"
       fill="#2e3436"
       id="path137-6" />
  </g>
  <g
     clip-path="url(#s-7)"
     mask="url(#r-2)"
     transform="translate(-160,-59.964844)"
     id="g143-8">
    <path
       d="m 199,642 h 3 v 12 h -3 z m 0,0"
       fill="#2e3436"
       id="path141-8" />
  </g>
  <g
     clip-path="url(#u-6)"
     mask="url(#t-6)"
     transform="translate(-160,-59.964844)"
     id="g147-4">
    <path
       d="m 209.5,144.16016 c 0.27734,0 0.5,0.22265 0.5,0.5 v 1 c 0,0.27734 -0.22266,0.5 -0.5,0.5 -0.27734,0 -0.5,-0.22266 -0.5,-0.5 v -1 c 0,-0.27735 0.22266,-0.5 0.5,-0.5 z m 0,0"
       fill="#2e3436"
       id="path145-3" />
  </g>
  <g
     clip-path="url(#w-0)"
     mask="url(#v-3)"
     transform="translate(-160,-59.964844)"
     id="g151-1">
    <path
       d="m 206.5,144.16016 c 0.27734,0 0.5,0.22265 0.5,0.5 v 1 c 0,0.27734 -0.22266,0.5 -0.5,0.5 -0.27734,0 -0.5,-0.22266 -0.5,-0.5 v -1 c 0,-0.27735 0.22266,-0.5 0.5,-0.5 z m 0,0"
       fill="#2e3436"
       id="path149-4" />
  </g>
  <g
     clip-path="url(#y-2)"
     mask="url(#x-1)"
     transform="translate(-160,-59.964844)"
     id="g155-9">
    <path
       d="m 229.5,143.16016 c -0.54688,0 -1,0.45703 -1,1 0,0.54687 0.45312,1 1,1 0.54687,0 1,-0.45313 1,-1 0,-0.54297 -0.45313,-1 -1,-1 z m 0,0"
       fill="#2e3436"
       id="path153-2" />
  </g>
  <g
     clip-path="url(#A-3)"
     mask="url(#z-7)"
     transform="translate(-160,-59.964844)"
     id="g159-0">
    <path
       d="m 226.45312,143.16016 c -0.51953,0 -0.95312,0.43359 -0.95312,0.95312 v 0.0937 c 0,0.51953 0.43359,0.95313 0.95312,0.95313 h 0.0937 c 0.51954,0 0.95313,-0.4336 0.95313,-0.95313 v -0.0937 c 0,-0.51953 -0.43359,-0.95312 -0.95313,-0.95312 z m 0,0"
       fill="#2e3436"
       id="path157-6" />
  </g>
  <path
     id="path161"
     style="opacity:0.5;fill:#808080;fill-opacity:1"
     d="m 5.9863281,0 v 0.5 c 0,2.480469 2.0195312,3.5000001 4.4999999,3.5000001 H 11 11.142578 C 13.268695,3.9999998 15,4.7313055 15,6.8574218 v 0.1777344 h 1.013672 v -0.5 c 0,-2.4804689 -2.019531,-3.4999999 -4.5,-3.4999999 H 11 10.857422 C 8.7313047,3.0351566 7,2.3038507 7,0.17773437 V 0.03515625 H 6 V 0 Z" />
  <path
     id="rect548"
     style="fill:#808080;stroke-width:0.626;fill-opacity:1"
     d="M 0 8 L 0 10 L 12 10 L 12 8 L 0 8 z M 13 8 L 13 10 L 14 10 L 14 8 L 13 8 z M 15 8 L 15 10 L 16 10 L 16 8 L 15 8 z " />
</svg>

<svg version="1.1" viewBox="0 0 16 16" xmlns="http://www.w3.org/2000/svg">
 <path d="m5.9863 0v0.5c0 2.4805 2.0195 3.5 4.5 3.5h0.65625c2.1261-3e-7 3.8574 0.73131 3.8574 2.8574v0.17773h1.0137v-0.5c0-2.4805-2.0195-3.5-4.5-3.5h-0.65625c-2.1261 3e-7 -3.8574-0.73131-3.8574-2.8574v-0.14258h-1v-0.035156z" fill="#808080" opacity=".5"/>
 <path d="m0 8v2h12v-2zm13 0v2h1v-2zm2 0v2h1v-2z" fill="#808080" stroke-width=".626"/>
</svg>
